!!!!SEGMENT: pl-sa--436-a-viii-76_musiallowski-jan--laudibus-cives.krn
!!!cenid: 17xx:1441
!!!COM: Musiałowski, Jan
!!!COM-rismID: pe50041899
!!!CDT: ~1600-~1699
!!!CNT: Polish
!!!OTL: Laudibus Cives
!!!PDT: 1755
!!!AGN:
!!!SMS-siglum: PL-SA
!!!SMS-shelfmark: 436/A VIII 76
!!!SMS-shelfwork: W
!!!SMS-variant:
!!!SMS-altvar:
!!!NIFC-rismSourceID: 1001069544
!!!NIFC-rismChildID: 1001069544
!!!NIFC-islandoraID:
!!!URL-pdf-islandora:
!!!URL-scan: https://bc.bdsandomierz.pl/dlibra/publication/1411/edition/1379/content @EN{Scan in the Sandomierz Diocese Digital Library} @PL{Skany w portalu Cyfrowa Biblioteka Diecezjalna w Sandomierzu}
!!!ONB-nifc:
!!!AIN: 1 alto 1 bass 1 organ 1 soprn 1 tenor 2 tromp 2 violn
!!!key: A
**kern	**kern	**kern	**kern	**text	**text	**text	**text	**kern	**text	**text	**text	**text	**kern	**text	**text	**text	**text	**kern	**text	**text	**text	**text	**kern	**kern
*group4	*group3	*group3	*group2	*	*	*	*	*group2	*	*	*	*	*group2	*	*	*	*	*group2	*	*	*	*	*group1	*group1
*part9	*part8	*part7	*part6	*part6	*part6	*part6	*part6	*part5	*part5	*part5	*part5	*part5	*part4	*part4	*part4	*part4	*part4	*part3	*part3	*part3	*part3	*part3	*part2	*part1
*staff9	*staff8	*staff7	*staff6	*staff6	*staff6	*staff6	*staff6	*staff5	*staff5	*staff5	*staff5	*staff5	*staff4	*staff4	*staff4	*staff4	*staff4	*staff3	*staff3	*staff3	*staff3	*staff3	*staff2	*staff1
*I"Organo	*I"Violino 2do	*I"Violino 1mo	*I"Baſso	*	*	*	*	*I"Tenore	*	*	*	*	*I"Alto	*	*	*	*	*I"Canto	*	*	*	*	*I"Clarino 2do ex A	*I"Clarino 1mo
*I'[Org]	*I'[Vl 2]	*I'[Vl 1]	*I'[B]	*	*	*	*	*I'[T]	*	*	*	*	*I'[A]	*	*	*	*	*I'[S]	*	*	*	*	*I'[Clno 2 in A]	*I'[Clno 1 in A]
*Iorgan	*Ivioln	*Ivioln	*Ibass	*	*	*	*	*Itenor	*	*	*	*	*Ialto	*	*	*	*	*Isoprn	*	*	*	*	*Itromp	*Itromp
*ICklav	*ICstr	*ICstr	*ICvox	*	*	*	*	*ICvox	*	*	*	*	*ICvox	*	*	*	*	*ICvox	*	*	*	*	*ICbras	*ICbras
*clefF4	*clefG2	*clefG2	*clefF4	*	*	*	*	*clefC4	*	*	*	*	*clefC3	*	*	*	*	*clefC1	*	*	*	*	*clefG2	*clefG2
*	*	*	*	*	*	*	*	*	*	*	*	*	*	*	*	*	*	*	*	*	*	*	*ITrd2c3	*ITrd2c3
*k[f#c#g#]	*k[f#c#g#]	*k[f#c#g#]	*k[f#c#g#]	*	*	*	*	*k[f#c#g#]	*	*	*	*	*k[f#c#g#]	*	*	*	*	*k[f#c#g#]	*	*	*	*	*k[f#c#g#]	*k[f#c#g#]
*A:	*A:	*A:	*A:	*	*	*	*	*A:	*	*	*	*	*A:	*	*	*	*	*A:	*	*	*	*	*A:	*A:
*M3/4	*M3/4	*M3/4	*M3/4	*	*	*	*	*M3/4	*	*	*	*	*M3/4	*	*	*	*	*M3/4	*	*	*	*	*M3/4	*M3/4
=1	=1	=1	=1	=1	=1	=1	=1	=1	=1	=1	=1	=1	=1	=1	=1	=1	=1	=1	=1	=1	=1	=1	=1	=1
!	!	!LO:TX:a:t=Tutti Lente	!	!	!	!	!	!	!	!	!	!	!	!	!	!	!	!LO:TX:t=P:problem=kolejność znaków&colon; cc# g# f#	!	!	!	!	!	!LO:TX:t=P:global:problem=8\left tails
!LO:TX:a:t=Tutti Lente	!LO:TX:a:t=Tutti Lente	!LO:N:vis=8.	!LO:TX:a:t=Lentiſsime	!	!	!	!	!LO:TX:a:t=Lentiſsime	!	!	!	!	!LO:TX:a:t=Lentiſsime	!	!	!	!	!LO:TX:a:t=Lentiſsime	!	!	!	!	!LO:TX:a:t=Tutti Lente	!LO:TX:a:t=Lente Tutti
!	!	!	!	!	!	!	!	!	!	!	!	!	!	!	!	!	!	!LO:TX:t=P:problem=all\middle&colon; global	!	!	!	!	!	!
8A\L	4cc#\	4ee\	4A\	Lau-	Il-	In-	Glo-	4c#\	Lau-	Il-	In-	Glo-	4a\	Lau-	Il-	In-	Glo-	4ee\	Lau-	Il-	In-	Glo-	4cc#\	4ee\
8E\	.	.	.	.	.	.	.	.	.	.	.	.	.	.	.	.	.	.	.	.	.	.	.	.
8C#\	4cc#\	4ee\	4G#\	-di-	-le	-ter	-ri-	4c#\	-di-	-le	-ter	-ri-	4a\	-di-	-le	-ter	-ri-	4ee\	-di-	-le	-ter	-ri-	4cc#\	4ee\
8AA\	.	.	.	.	.	.	.	.	.	.	.	.	.	.	.	.	.	.	.	.	.	.	.	.
8E\	4cc#\	4ee\	4A\	-bus	flo-	ur-	-a	4c#\	-bus	flo-	ur-	-a	4a\	-bus	flo-	ur-	-a	4ee\	-bus	flo-	ur-	-a	4cc#\	4ee\
8A\J	.	.	.	.	.	.	.	.	.	.	.	.	.	.	.	.	.	.	.	.	.	.	.	.
=2	=2	=2	=2	=2	=2	=2	=2	=2	=2	=2	=2	=2	=2	=2	=2	=2	=2	=2	=2	=2	=2	=2	=2	=2
*	*2\right	*2\right	*	*	*	*	*	*2\right	*	*	*	*	*2\right	*	*	*	*	*2\right	*	*	*	*	*2\right	*2\right
8D\L	2dd\	2ff#\	(<4AA/	Ci-	-ren-	-ti-	Pa-	2d\	Ci-	-ren-	-ti-	Pa-	2a\	Ci-	-ren-	-ti-	Pa-	2ff#T>\	Ci-	-ren-	-ti-	Pa-	2dd\	2ff#\
8E\	.	.	.	.	.	.	.	.	.	.	.	.	.	.	.	.	.	.	.	.	.	.	.	.
8F#\	.	.	4D/)	.	.	.	.	.	.	.	.	.	.	.	.	.	.	.	.	.	.	.	.	.
8D\J	.	.	.	.	.	.	.	.	.	.	.	.	.	.	.	.	.	.	.	.	.	.	.	.
4AA/	4cc#\	4ee\	4A\	-ves	-tes	-cas	-tri	4c#\	-ves	-tes	-cas	-tri	4a\	-ves	-tes	-cas	-tri	4ee\	-ves	-tes	-cas	-tri	4cc#\	4ee\
=3	=3	=3	=3	=3	=3	=3	=3	=3	=3	=3	=3	=3	=3	=3	=3	=3	=3	=3	=3	=3	=3	=3	=3	=3
4E\	4.b\	4.dd\	4.E\	re-	pe-	ri-	ge-	4.B\	re-	pe-	ri-	ge-	4.g#X\	re-	pe-	ri-	ge-	4.dd\	re-	pe-	ri-	ge-	4.b\	4.dd\
4F#\	.	.	.	.	.	.	.	.	.	.	.	.	.	.	.	.	.	.	.	.	.	.	.	.
.	8a\	8cc#\	8F#\	-so-	-ra-	-gi-	-na-	8A\	-so-	-ra-	-gi-	-na-	8g#\	-so-	-ra-	-gi-	-na-	8cc#\	-so-	-ra-	-gi-	-ni-	8a\	8cc#\
4G#\	4g#/	4b\	4G#\	-nent	-ge-	-dos-	-tae-	4G#X/	-nent	-ge-	-dos-	-tae-	4g#\	-nent	-ge-	-dos-	-tae-	4b\	-nent	-ge-	-dos-	-tae-	4e/	4b\
=4	=4	=4	=4	=4	=4	=4	=4	=4	=4	=4	=4	=4	=4	=4	=4	=4	=4	=4	=4	=4	=4	=4	=4	=4
4A\	4a/	4ee\	4A\	ca-	-bat	-q(ue)	-q(ue)	4c#\	ca-	-bat	-q(ue)	-q(ue)	4a\	ca-	-bat	-que	-q(ue)	4ee\	ca-	-bat	-q(ue)	-q(ue)	4cc#\	4ee\
4B\	2f#/	2dd#X\	(>4B\	-no-	an-	Son-	Pro-	2B\	-no-	an-	Son-	Pro-	2f#X\	-no-	an-	Son-	Pro-	2dd#Xt>\	-no-	an-	Sen-	Pro-	2b\	2dd#X\
4BB/	.	.	4BB/)	.	.	.	.	.	.	.	.	.	.	.	.	.	.	.	.	.	.	.	.	.
=5	=5	=5	=5	=5	=5	=5	=5	=5	=5	=5	=5	=5	=5	=5	=5	=5	=5	=5	=5	=5	=5	=5	=5	=5
8E\L	2g#/	2ee\	4E\	-ris	-nos	-tes	-li	2B\	-ris	-nos	-tes	-li	2g#X\	-ris	-nos	-tes	-li	2ee\	-ris.	-nos.	-tes.	-li.	2b\	2ee\
8F#\	.	.	.	.	.	.	.	.	.	.	.	.	.	.	.	.	.	.	.	.	.	.	.	.
8E\	.	.	4r	.	.	.	.	.	.	.	.	.	.	.	.	.	.	.	.	.	.	.	.	.
8D\	.	.	.	.	.	.	.	.	.	.	.	.	.	.	.	.	.	.	.	.	.	.	.	.
8C#\	4r	4r	4r	.	.	.	.	4r	.	.	.	.	4r	.	.	.	.	4r	.	.	.	.	4r	4r
8BB\J	.	.	.	.	.	.	.	.	.	.	.	.	.	.	.	.	.	.	.	.	.	.	.	.
!LO:LB:g=original	!	!	!	!	!	!	!	!	!	!	!	!	!	!	!	!	!	!	!	!	!	!	!	!
=6	=6	=6	=6	=6	=6	=6	=6	=6	=6	=6	=6	=6	=6	=6	=6	=6	=6	=6	=6	=6	=6	=6	=6	=6
!	!	!	!	!	!	!	!	!	!	!	!	!	!	!	!	!	!	!LO:TX:t=P:problem=all\left&colon; global	!	!	!	!	!	!
8AA/L	4.cc#\	4.ee\	4AA/	Tem-	Cum	vi-	Et	4.c#\	Tem-	Cum	vi-	Et	4.a\	Tem-	Cum	vi-	Et	4.ee\	Tem-	Cum	Vi-	Et	4.cc#\	4.ee\
8C#/	.	.	.	.	.	.	.	.	.	.	.	.	.	.	.	.	.	.	.	.	.	.	.	.
8D/	.	.	4C#/	-pla	pu-	-cit	Ti-	.	.	.	.	.	.	.	.	.	.	.	.	.	.	.	.	.
8E/J	8b\	8dd\	.	.	.	.	.	8B\	-pla	pu-	-cit	ti-	8a\	-pla	pu-	-cit	Ti-	8ddn\	-pla	pu-	-cit	Ti-	8b\	8dd\
4AA/	4a/	4cc#\	4AA/	So-	-er	al-	-bi	4A/	So-	-er	al-	-bi	4a\	So-	-er	al-	-bi	4cc#\	So-	-er	al-	-bi	4a\	4cc#\
=7	=7	=7	=7	=7	=7	=7	=7	=7	=7	=7	=7	=7	=7	=7	=7	=7	=7	=7	=7	=7	=7	=7	=7	=7
!	!	!	!	!	!	!	!	!	!	!	!	!	!	!	!	!	!	!	!	!	!	!	!LO:TX:t=P:problem=brak taktu	!
8E\L	2b\	2dd\	(>4E\	-len-	dul-	-tri-	com-	2B\	-len-	dul-	-tri-	com-	2g#X\	-lem-	dul-	-tri-	com-	2ddT>\	-len-	dul-	-tri-	com-	2.ryy	2dd\
8B\	.	.	.	.	.	.	.	.	.	.	.	.	.	.	.	.	.	.	.	.	.	.	.	.
8G#\	.	.	4G#\)	-nes	.	.	.	.	.	.	.	.	.	.	.	.	.	.	.	.	.	.	.	.
8E\	.	.	.	.	.	.	.	.	.	.	.	.	.	.	.	.	.	.	.	.	.	.	.	.
!	!LO:TX:t=P:problem=brak kreski taktowej	!	!	!	!	!	!	!	!	!	!	!	!	!	!	!	!LO:TX:t=P:4\right:problem	!	!	!	!	!	!	!
8B\	4b\	4dd\	4E\,<	.	-cis	-cem	-par	4B\	-nes	-cis	-cem	-par	4g#\	-nes	-cis	-cem	-par	4dd\	-nes	-cis	-cem	-par	.	4dd\
8E\J	.	.	.	.	.	.	.	.	.	.	.	.	.	.	.	.	.	.	.	.	.	.	.	.
!	!LO:LB:g=original	!LO:LB:g=original	!	!	!	!	!	!	!	!	!	!	!	!	!	!	!	!	!	!	!	!	!	!
=8	=8-	=8	=8	=8	=8	=8	=8	=8	=8	=8	=8	=8	=8	=8	=8	=8	=8	=8	=8	=8	=8	=8	=8	=8
!	!	!LO:TX:t=P:problem=na początku taktu główka nuty ff	!	!	!	!	!	!	!	!	!	!	!	!	!	!	!	!	!	!	!	!	!	!
8G#\L	8b\L	8dd\L	4.G#\	Mo-	Pa-	Sce-	u-	4.B\	mo-	Pa-	Sce-	u-	4.g#\	mo-	Pa-	Sce-	u-	4.dd\	mo-	Pa-	Sce-	u-	8b\L	8dd\L
8E\	8cc#\	8ee\	.	.	.	.	.	.	.	.	.	.	.	.	.	.	.	.	.	.	.	.	8cc#\	8ee\
8G#\	8b\	8dd\	.	.	.	.	.	.	.	.	.	.	.	.	.	.	.	.	.	.	.	.	8b\	8dd\
8B\J	8a\J	8cc#\J	8B\	-du-	-tri-	-le-	-tri-	8B\	-du-	-tri-	-le-	-tri-	8g#\	-du-	-tri-	-le-	-tri-	8cc#\	-du-	-tri-	-le-	-tri-	8a\J	8cc#\J
4G#\	4g#/	4b/	4G#\	-len-	-ae	-rum	-us-	4B\	-len-	-ae	-rum	-us-	4e\	-len-	-ae	-rum	-us-	4b\	-len-	-ae	-rum	-us-	4e/	4b\
!	!	!	!	!	!	!	!	!	!	!	!	!	!	!	!	!	!	!	!	!	!	!	!LO:LB:g=original	!LO:LB:g=original
=9	=9	=9	=9	=9	=9	=9	=9	=9	=9	=9	=9	=9	=9	=9	=9	=9	=9	=9	=9	=9	=9	=9	=9	=9
!!mixed beam:problem
!	!	!LO:TUP:a:problem=klamra łukowa	!	!	!	!	!	!	!	!	!	!	!	!	!	!	!	!	!	!	!	!	!LO:TX:t=P:problem=mixed beam	!
4A\	4a/	24cc#\LL	4A\	-tur	pe-	ju-	-q(ue)	4A\	-tur	pe-	ju-	-q(ue)	4e\	-tur	pe-	ju-	-q(ue)	4cc#\	-tur	pe-	ju-	-q(ue)	8a\L	4cc#\
.	.	24b\	.	.	.	.	.	.	.	.	.	.	.	.	.	.	.	.	.	.	.	.	.	.
.	.	24a\JJ	.	.	.	.	.	.	.	.	.	.	.	.	.	.	.	.	.	.	.	.	.	.
!!mixed beam:problem
!	!	!LO:TX:t=P:problem=mixed beam	!	!	!	!	!	!	!	!	!	!	!	!	!	!	!	!	!	!	!	!	!	!
.	.	16aa\LL	.	.	.	.	.	.	.	.	.	.	.	.	.	.	.	.	.	.	.	.	8e/	.
.	.	16a/JJ	.	.	.	.	.	.	.	.	.	.	.	.	.	.	.	.	.	.	.	.	.	.
.	.	(<8qqa/	.	.	.	.	.	.	.	.	.	.	.	.	.	.	.	.	.	.	.	.	.	.
4D/	2g#/	2b/)	(<4D/	hym-	-na-	-ven-	Sem-	2G#/	hym-	-na-	-ven-	Sem-	[>4e\	hym-	-na-	-ven-	Sem-	2bT>\	hym-	-na-	-ven-	Sem-	8c#/	2bT>\
.	.	.	.	.	.	.	.	.	.	.	.	.	.	.	.	.	.	.	.	.	.	.	8A/	.
4E\	.	.	4E/)	.	.	.	.	.	.	.	.	.	4e\]	.	.	.	.	.	.	.	.	.	8c#/	.
.	.	.	.	.	.	.	.	.	.	.	.	.	.	.	.	.	.	.	.	.	.	.	8e/J	.
=10	=10	=10	=10	=10	=10	=10	=10	=10	=10	=10	=10	=10	=10	=10	=10	=10	=10	=10	=10	=10	=10	=10	=10	=10
8AA/L	2a/	2a/	2AA/	-nos	-tes	-tam	-per	2A/	-nos	-tes	-tam	-per	2e\	-nos	-tes	-tam	-per	4a\	-nos,—	-tes,—	-tam,—	-per—	2c#/	2a\
16BB/L	.	.	.	.	.	.	.	.	.	.	.	.	.	.	.	.	.	.	.	.	.	.	.	.
16C#/J	.	.	.	.	.	.	.	.	.	.	.	.	.	.	.	.	.	.	.	.	.	.	.	.
8D/	.	.	.	.	.	.	.	.	.	.	.	.	.	.	.	.	.	4r	.	.	.	.	.	.
8E/	.	.	.	.	.	.	.	.	.	.	.	.	.	.	.	.	.	.	.	.	.	.	.	.
8F#/	4r	4r	4r	.	.	.	.	4r	.	.	.	.	4r	.	.	.	.	4r	.	.	.	.	4r	4r
8A/J	.	.	.	.	.	.	.	.	.	.	.	.	.	.	.	.	.	.	.	.	.	.	.	.
!	!	!	!LO:LB:g=original	!	!	!	!	!	!	!	!	!	!	!	!	!	!	!	!	!	!	!	!	!
=11	=11	=11	=11	=11	=11	=11	=11	=11	=11	=11	=11	=11	=11	=11	=11	=11	=11	=11	=11	=11	=11	=11	=11	=11
!	!	!	!	!	!	!	!	!	!	!	!	!	!	!	!	!	!	!	!	!	!	!	!	!LO:TX:b:t=|:problem
4B\	(<8g#/L	(>8b\L	4B\	Hac	Li-	In-	Spi-	4e\	Hac	Li-	In-	Spi-	4g#X\	Hac	Li-	In-	Spi-	4b\	Hac	Li-	In-	Spi-	4e/	4e/
.	8f#/)	8a\)	.	.	.	.	.	.	.	.	.	.	.	.	.	.	.	.	.	.	.	.	.	.
!	!	!	!	!	!	!	!	!	!	!	!	!	!	!	!	!	!	!	!	!	!	!	!	!LO:TX:b:t=|:problem
4G#\	(<8g#/	(>8b\	4G#\	di-	-quit	-de	-ri-	4e\	di-	-quit	-de	-ri-	(>8g#\L	di-	-quit	-de	-ri-	(>8b\L	di-	-quit	-de	-ri-	4r	4e/
.	8a/)	8cc#\)	.	.	.	.	.	.	.	.	.	.	8a\J)	.	.	.	.	8cc#\J)	.	.	.	.	.	.
!LO:TX:t=P:problem=brak kreski taktowej	!	!	!	!	!	!	!	!	!	!	!	!	!	!	!	!	!	!	!	!	!	!	!	!LO:TX:b:t=|:problem
4E\	(<8g#/	(>8b\	4F#\	-e	et	con-	-tus	4e\	-e	et	con-	-tus	(>8g#\L	-e	et	con-	-tus	(>8b\L	-e	et	con-	-tus	4e/	4e/
.	8a/J)	8cc#\J)	.	.	.	.	.	.	.	.	.	.	8a\J)	.	.	.	.	8cc#\J)	.	.	.	.	.	.
!LO:LB:g=original	!	!	!	!	!	!	!	!	!	!	!	!	!	!	!	!	!	!	!	!	!	!	!	!
=12-	=12	=12	=12	=12	=12	=12	=12	=12	=12	=12	=12	=12	=12	=12	=12	=12	=12	=12	=12	=12	=12	=12	=12	=12
!	!	!	!	!	!	!	!	!	!	!	!	!	!	!	!	!	!	!	!	!	!	!	!	!LO:TX:b:t=|:problem
4E\	8dd\L	8dd\L	(>4E\	Sum-	So-	-scri-	al-	2e\	Sum-	So-	-scri-	al-	(>8b\L	Sum-	So-	-scri-	al-	(>8dd\L	Sum-	So-	-scri-	al-	4e/	4e/
.	8cc#\	8cc#\J	.	.	.	.	.	.	.	.	.	.	8a\J)	.	.	.	.	8cc#\J)	.	.	.	.	.	.
!	!	!	!	!	!	!	!	!	!	!	!	!	!	!	!	!	!	!	!	!	!	!	!	!LO:TX:b:t=|:problem
4G#\	8dd\	16dd\LL	4G#\)	.	.	.	.	.	.	.	.	.	(>8b\L	-mi	-lus	-psit	-me	(>8dd\L	-mi	-lus	-psit	-me	4r	4e/
.	.	16ee\	.	.	.	.	.	.	.	.	.	.	.	.	.	.	.	.	.	.	.	.	.	.
.	8b\J	16dd\	.	.	.	.	.	.	.	.	.	.	8g#X\J)	.	.	.	.	8b\J)	.	.	.	.	.	.
.	.	16cc#\JJ	.	.	.	.	.	.	.	.	.	.	.	.	.	.	.	.	.	.	.	.	.	.
!	!	!	!	!	!	!	!	!	!	!	!	!	!	!	!	!	!	!	!	!	!	!	!	!LO:TX:b:t=|:problem
4A\	4cc#\	4cc#\	4A\	-mi	-lus	-psit	-me	4e\	-mi	-lus	-psit	-me	4a\	.	.	.	.	4cc#\	.	.	.	.	4e/	4e/
!	!	!	!	!	!	!	!	!LO:LB:g=original	!	!	!	!	!	!	!	!	!	!LO:LB:g=original	!	!	!	!	!	!
=13	=13	=13	=13	=13	=13	=13	=13	=13	=13	=13	=13	=13	=13	=13	=13	=13	=13	=13	=13	=13	=13	=13	=13	=13
!	!	!	!	!	!	!	!	!	!	!	!	!	!	!	!	!	!	!	!	!	!	!	!	!LO:TX:b:t=|:problem
4B\	8b\L	(>8dd\L	8B\	Be-	la-	do-	De-	8e\	Be-	La-	do-	De-	8g#X\	Be-	la-	do-	De-	8b\	Be-	La-	do-	De-	4e/	4e/
.	(>8a\	8cc#\J)	8B\	-ne-	-tu-	-cu-	-us	8e\	-ne-	-tu-	-cu-	-us	8g#\	-ne-	-tu-	-cu-	-us	8b\	-ne-	-tu-	-cu-	-us	.	.
!	!	!LO:LB:g=original	!	!	!	!	!	!	!	!	!	!	!LO:LB:g=original	!	!	!	!	!	!	!	!	!	!	!
!	!	!	!	!	!	!	!	!	!	!	!	!	!	!	!	!	!	!	!	!	!	!	!	!LO:TX:b:t=|:problem
4G#\	8g#\	(>8b\L	4G#\	-dic-	-it	-men-	u-	4e\	-dic-	-it	-men-	u-	(>8g#\L	-dic-	-it	-men-	u-	(>8b\L	-dic-	-it	-men-	u-	4r	4e/
.	8a\)	8cc#\)	.	.	.	.	.	.	.	.	.	.	8a\J)	.	.	.	.	8cc#\J)	.	.	.	.	.	.
!	!	!	!	!	!	!	!	!	!	!	!	!	!	!	!	!	!	!	!	!	!	!	!	!LO:TX:b:t=|:problem
4E\	(>8g#\	(>8b\	4E\	-tus	Si-	-ta	-nus	4e\	-tus	si-	-ta	-nus	(>8g#\L	-tus	si-	-ta	-nus	(>8b\L	-tus	si-	-ta	-nus	4e/	4e/
.	8a\J)	8cc#\J)	.	.	.	.	.	.	.	.	.	.	8a\J)	.	.	.	.	8cc#\J)	.	.	.	.	.	.
!	!LO:LB:g=original	!	!	!	!	!	!	!	!	!	!	!	!	!	!	!	!	!	!	!	!	!	!	!
=14	=14	=14	=14	=14	=14	=14	=14	=14	=14	=14	=14	=14	=14	=14	=14	=14	=14	=14	=14	=14	=14	=14	=14	=14
!	!	!	!	!	!	!	!	!	!	!	!	!	!	!	!	!	!	!	!	!	!	!	!	!LO:TX:b:t=|:problem
4E\	8b\L	8dd\L	(>4E\	ar-	-len-	vi-	om-	2e\	ar-	-len-	vi-	om-	8b\L	ar-	-len-	vi-	om-	8dd\L	ar-	-len-	vi-	om-	4e/	4e/
.	8a\	8cc#\	.	.	.	.	.	.	.	.	.	.	8a\J	.	.	.	.	8cc#\J	.	.	.	.	.	.
!	!	!	!	!	!	!	!	!	!	!	!	!	!	!	!	!	!	!	!	!	!	!	!	!LO:TX:b:t=|:problem
4G#\	8b\	8dd\	4G#\)	.	.	.	.	.	.	.	.	.	8b\L	.	.	.	.	(>8dd\L	.	.	.	.	4r	4e/
.	8g#\J	8b\J	.	.	.	.	.	.	.	.	.	.	8g#X\J	.	.	.	.	8b\J)	.	.	.	.	.	.
!	!	!	!	!	!	!	!	!	!	!	!	!	!	!	!	!	!	!	!	!	!	!	!	!LO:TX:b:t=|:problem
4A\	4a/	4cc#\	4A\	-cem	-ti	-tae	-ni	4e\	-cem	-ti	-tae	-ni	4a\	-cem	-ti	-tae	-ni	4cc#\	-cem	-ti	-tae	-ni	4e/	4e/
=15	=15	=15	=15	=15	=15	=15	=15	=15	=15	=15	=15	=15	=15	=15	=15	=15	=15	=15	=15	=15	=15	=15	=15	=15
8AA/L	8cc#\L	8ee\L	4AA/	Scan-	can-	pul-	tem-	4.c#\	Scan-	can-	pul-	tem-	4.a\	Scan-	can-	Pul-	Tem-	4.ee\	Scan-	con-	pul-	Tem-	4cc#\	8ee\L
8BB/	8dd\	8ff#\	.	.	.	.	.	.	.	.	.	.	.	.	.	.	.	.	.	.	.	.	.	8ff#\
8C#/	8cc#\	8ee\	(<4BB/	-dit	-di-	-chra	-po-	.	.	.	.	.	.	.	.	.	.	.	.	.	.	.	4b\	8ee\
8D/	8b\J	8dd\J	.	.	.	.	.	8B\	-dit	-di-	-chra	-po-	8a\	-dit	-di-	-chra	-po-	8dd\	-det	-di-	-chra	-po-	.	8dd\J
8E/	4a/	4cc#\	4C#/)	.	-d[us]	.	-[re]	4A/	.	-dus	.	-re	4a\	.	-dus	.	-re	4cc#\	.	-tus	.	-re	4a\	4cc#\
8G#/J	.	.	.	.	.	.	.	.	.	.	.	.	.	.	.	.	.	.	.	.	.	.	.	.
=16	=16	=16	=16	=16	=16	=16	=16	=16	=16	=16	=16	=16	=16	=16	=16	=16	=16	=16	=16	=16	=16	=16	=16	=16
!!mixed beam:problem
!	!	!LO:TUP:a:problem=klamra łukowa	!	!	!	!	!	!	!	!	!	!	!	!	!	!	!	!	!	!	!	!	!LO:TX:t=P:problem=mixed beam	!
8F#\L	4e/	24dd\LL	4D\	o-	an-	be-	Sae-	4A/	O-	an-	be-	Sae-	4e\	o-	an-	be-	.	8cc#\L	O-	an-	be-	.	8a\L	4b\
.	.	24b\	.	.	.	.	.	.	.	.	.	.	.	.	.	.	.	.	.	.	.	.	.	.
.	.	24a\JJ	.	.	.	.	.	.	.	.	.	.	.	.	.	.	.	.	.	.	.	.	.	.
!	!	!LO:TX:t=P:problem=brak odnotowanej pauzy ósemkowej	!	!	!	!	!	!	!	!	!	!	!	!	!	!	!	!	!	!	!	!	!	!
8D\J	.	8ryy	.	.	.	.	.	.	.	.	.	.	.	.	.	.	.	8a\J	.	.	.	.	8e/	.
.	.	(<8qqa/	.	.	.	.	.	.	.	.	.	.	.	.	.	.	.	.	.	.	.	.	.	8qqcc#/
4E\	2g#/	2b/)	(>4E\	-lim-	.	-a-	.	2G#X/	-lim-	.	-a-	.	2e\	-lim-	.	-a-	Sae-	2bT>\	-lim-	.	-a-	Sae-	8c#/	2bT>\
.	.	.	.	.	.	.	.	.	.	.	.	.	.	.	.	.	.	.	.	.	.	.	8A/	.
4EE/	.	.	4EE/)	.	.	.	.	.	.	.	.	.	.	.	.	.	.	.	.	.	.	.	8c#/	.
.	.	.	.	.	.	.	.	.	.	.	.	.	.	.	.	.	.	.	.	.	.	.	8e/J	.
!	!	!	!	!	!	!	!	!	!	!	!	!	!	!	!	!	!	!	!	!	!	!	!LO:LB:g=original	!
=17	=17	=17	=17	=17	=17	=17	=17	=17	=17	=17	=17	=17	=17	=17	=17	=17	=17	=17	=17	=17	=17	=17	=17	=17
!LO:TX:a:t=Tacet Hymn(us)	!	!	!	!	!	!	!	!	!	!	!	!	!	!	!	!	!	!	!	!	!	!	!LO:TX:a:t=Tacet Hymn(us)	!
!LO:N:vis=2	!LO:TX:a:t=Tacet Hymnus	!LO:TX:a:t=Tacet Hymnus	!	!	!	!	!	!	!	!	!	!	!LO:N:vis=2	!	!	!	!	!	!	!	!	!	!LO:N:vis=2	!LO:TX:b:t=Hymnus Tacet || Da Capo
2.AA/	2.a/	2.a/	2.AA/	-pi	-tro	-tae	-cli	2.A/	-pi	-tro	-tae	-cli	2.c#/	-pi	-tro	-tae	-cli	2.a\	-pi.—	-tro—	-tae	-cli.	2.c#/	2.a\
==	==	==	==;;	==	==	==	==	==;;	==	==	==	==	==;;	==	==	==	==	==;;	==	==	==	==	==	==
*-	*-	*-	*-	*-	*-	*-	*-	*-	*-	*-	*-	*-	*-	*-	*-	*-	*-	*-	*-	*-	*-	*-	*-	*-
!!!system-decoration: [(g1)][(g2)][(g3)][(g4)]
!!!RDF**kern: > = above
!!!RDF**kern: < = below
!!!ENC: Katarzyna Serwa
!!!END: 2020-12-05
!!!EED: Jędrzej Mróz
!!!EEV: 2022-01-11
!!!YEC: Copyright 2022 Narodowy Instytut Fryderyka Chopina (https://polishscores.org)
!!!YEM: License CC-BY-4.0 (https://creativecommons.org/licenses/by/4.0)
